X:2805
L:1/8
M:4/4
K:Amin
 A2 cA eAcA | G2 BG dGBG | A2 cA eAcA | dBGB cAAB :| EAcA eAcA | G2 BG dGBG | A2 cA eAcA | 
 dBGB cAAG | EAcA eAcA | G2 BG dGBG | ABcd egfa | gedB cA A2 ||

